storage/app/icons/phosphoricons/bold/picture-in-picture-bold.svg

<svg xmlns="http://www.w3.org/2000/svg" fill="currentColor" viewBox="0 0 256 256"><path d="M216 44H40a20 20 0 0 0-20 20v128a20 20 0 0 0 20 20h176a20 20 0 0 0 20-20V64a20 20 0 0 0-20-20M44 68h168v48h-76a12 12 0 0 0-12 12v60H44Zm104 120v-48h64v48Z"/></svg>

<svg xmlns="http://www.w3.org/2000/svg" viewBox="0 0 256 256" fill="currentColor"><path d="M216,44H40A20,20,0,0,0,20,64V192a20,20,0,0,0,20,20H216a20,20,0,0,0,20-20V64A20,20,0,0,0,216,44ZM44,68H212v48H136a12,12,0,0,0-12,12v60H44ZM148,188V140h64v48Z"/></svg>
